X: 27659
T: Mordaunt's Fancy
R: jig
M: 6/8
K: Gmajor
D|:G2B BAB|GEF GBd|gfg dBG|DFA cBA|
G2B BAB|GEF GBd|gfg dBG|1 DFA G2D:|2 DFA GBd||
|:gag fed|Bdd def|gag fed|Bee e2f|
gfg afd|gfe dBG|AFD DFA|1 BGG GBd:|2 BGF G3||

